X:1
T:Miss Ross
T:Miss Ross
T:Niel Gow
C:Niel Gow
L:1/8
Q:1/8=128
M:4/4
K:Bb
V:1 treble 
V:1
|: G | F2 F>G F>G B>d | c>B d>B c>B G<B | F2 F>G F>G B>g | f<B e>d c2 BG | F2 F>G F>G B>d | %6
 c>B d>B c>B G<B | F2 F>G F>G B>g | f<B e>d c2 Be | d<f f>g fg/a/ b>d | c>B d>B c>B G>e | %11
 d<f f>g f/g/a b>d | c>B e>d c2 BE | d<f f>g fg/a/ b>d | c>B d>B c>B G>e | F>B D>B F>G B>g | %16
 f<B e>d c2 B :| %17

